img/purple-oval.svg

<svg width="206" height="230" viewBox="0 0 206 230" fill="none" xmlns="http://www.w3.org/2000/svg">
<path fill-rule="evenodd" clip-rule="evenodd" d="M114.005 1.08451C137.017 0.71001 162.185 0.973593 179.715 15.2032C196.843 29.107 199.928 52.566 203.519 73.7477C206.62 92.0393 204.759 110.152 198.802 127.788C192.832 145.464 181.776 159.979 169.519 174.405C152.591 194.326 140.243 222.013 114.005 227.583C86.8943 233.338 57.1085 220.882 37.0853 202.517C18.1292 185.131 19.362 157.22 11.2639 133.352C3.17803 109.519 -18.2085 86.8486 -10.2584 62.9743C-2.30428 39.0883 26.6185 28.9132 49.904 17.3158C69.9931 7.3104 91.3473 1.45326 114.005 1.08451Z" stroke="#FBA2B8"/>
</svg>

<svg xmlns="http://www.w3.org/2000/svg" width="206" height="230" fill="none"  ><path d="M114.005 1.085c23.012-.375 48.18-.111 65.71 14.119 17.128 13.904 20.213 37.363 23.804 58.544 3.101 18.292 1.24 36.404-4.717 54.04-5.97 17.676-17.026 32.191-29.283 46.617-16.928 19.921-29.276 47.608-55.514 53.178-27.111 5.755-56.896-6.701-76.92-25.066-18.956-17.386-17.723-45.297-25.821-69.165-8.086-23.833-29.472-46.503-21.522-70.378 7.954-23.886 36.877-34.061 60.162-45.658C69.993 7.31 91.347 1.453 114.005 1.085z" stroke="#fba2b8"/></svg>
